src/assets/outline/TicketExpired.svg

<svg width="24" height="24" viewBox="0 0 24 24"  xmlns="http://www.w3.org/2000/svg">
<path d="M17.3802 20.75H10.9102C10.5002 20.75 10.1602 20.41 10.1602 20C10.1602 19.59 10.5002 19.25 10.9102 19.25H17.3802C20.4402 19.25 21.1602 18.75 21.2402 16.03C19.9202 15.69 18.9402 14.49 18.9402 13.07C18.9402 11.64 19.9202 10.43 21.2502 10.09V9.83002C21.2502 6.54002 20.6702 5.96002 17.3802 5.96002H11.7502V12C11.7502 12.41 11.4102 12.75 11.0002 12.75C10.5902 12.75 10.2502 12.41 10.2502 12V5.21002C10.2502 4.80002 10.5902 4.46002 11.0002 4.46002H17.3802C21.5002 4.46002 22.7502 5.71002 22.7502 9.83002V10.75C22.7502 11.16 22.4102 11.5 22.0002 11.5C21.1402 11.5 20.4402 12.2 20.4402 13.07C20.4402 13.93 21.1402 14.63 22.0002 14.63C22.4102 14.63 22.7502 14.97 22.7502 15.38C22.7502 19.5 21.5002 20.75 17.3802 20.75Z" />
<path d="M10.9999 20.75H8.22995C6.20995 20.75 5.16995 19.23 4.21995 16.95L4.02995 16.49C3.95995 16.31 3.95995 16.1 4.03995 15.92C4.11995 15.74 4.26995 15.59 4.44995 15.52C4.84995 15.36 5.15995 15.05 5.32995 14.66C5.49995 14.26 5.49995 13.82 5.32995 13.42C4.99995 12.58 4.04995 12.19 3.20995 12.52C3.01995 12.6 2.81995 12.59 2.62995 12.51C2.44995 12.43 2.29995 12.28 2.22995 12.1L2.05995 11.67C0.459948 7.77997 1.15995 6.10997 5.04995 4.49997L7.68995 3.41997C8.06995 3.25997 8.50995 3.44997 8.66995 3.82997L11.6999 11.17C11.7399 11.26 11.7599 11.36 11.7599 11.46V14C11.7599 14.41 11.4199 14.75 11.0099 14.75C10.5999 14.75 10.2599 14.41 10.2599 14V11.6L7.55995 5.08997L5.61995 5.88997C2.53995 7.15997 2.16995 7.93997 3.37995 10.94C4.76995 10.74 6.16995 11.49 6.71995 12.84C7.03995 13.61 7.03995 14.46 6.70995 15.23C6.48995 15.76 6.12995 16.21 5.66995 16.54C6.62995 18.8 7.32995 19.25 8.21995 19.25H10.2399V17C10.2399 16.59 10.5799 16.25 10.9899 16.25C11.3999 16.25 11.7399 16.59 11.7399 17V20C11.7499 20.41 11.4099 20.75 10.9999 20.75Z" />
<path d="M8.17 20.75H8C7.59 20.75 7.25 20.41 7.25 20C7.25 19.59 7.59 19.25 8 19.25H8.17C8.58 19.25 8.92 19.59 8.92 20C8.92 20.41 8.58 20.75 8.17 20.75Z" />
</svg>

<?xml version="1.0" encoding="UTF-8"?>
<svg width="24" height="24" viewBox="0 0 24 24" xmlns="http://www.w3.org/2000/svg">
 <path d="m17.38 20.75h-6.47c-0.41 0-0.75-0.34-0.75-0.75s0.34-0.75 0.75-0.75h6.47c3.06 0 3.78-0.5 3.86-3.22-1.32-0.34-2.3-1.54-2.3-2.96 0-1.43 0.98-2.64 2.31-2.98v-0.25998c0-3.29-0.58-3.87-3.87-3.87h-5.63v6.04c0 0.41-0.34 0.75-0.75 0.75s-0.75-0.34-0.75-0.75v-6.79c0-0.41 0.34-0.75 0.75-0.75h6.38c4.12 0 5.37 1.25 5.37 5.37v0.91998c0 0.41-0.34 0.75-0.75 0.75-0.86 0-1.56 0.7-1.56 1.57 0 0.86 0.7 1.56 1.56 1.56 0.41 0 0.75 0.34 0.75 0.75 0 4.12-1.25 5.37-5.37 5.37z"/>
 <path d="m11 20.75h-2.77c-2.02 0-3.06-1.52-4.01-3.8l-0.19-0.46c-0.07-0.18-0.07-0.39 0.01-0.57s0.23-0.33 0.41-0.4c0.4-0.16 0.71-0.47 0.88-0.86 0.17-0.4 0.17-0.84 0-1.24-0.33-0.84-1.28-1.23-2.12-0.9-0.19 0.08-0.39 0.07-0.58-0.01-0.18-0.08-0.33-0.23-0.4-0.41l-0.17-0.43c-1.6-3.89-0.9-5.56 2.99-7.17l2.64-1.08c0.38-0.16 0.82 0.03 0.98 0.41l3.03 7.34c0.04 0.09 0.06 0.19 0.06 0.29v2.54c0 0.41-0.34 0.75-0.75 0.75s-0.75-0.34-0.75-0.75v-2.4l-2.7-6.51-1.94 0.8c-3.08 1.27-3.45 2.05-2.24 5.05 1.39-0.2 2.79 0.55 3.34 1.9 0.32 0.77 0.32 1.62-0.01 2.39-0.22 0.53-0.58 0.98-1.04 1.31 0.96 2.26 1.66 2.71 2.55 2.71h2.02v-2.25c0-0.41 0.34-0.75 0.75-0.75s0.75 0.34 0.75 0.75v3c0.01 0.41-0.33 0.75-0.74 0.75z"/>
 <path d="m8.17 20.75h-0.17c-0.41 0-0.75-0.34-0.75-0.75s0.34-0.75 0.75-0.75h0.17c0.41 0 0.75 0.34 0.75 0.75s-0.34 0.75-0.75 0.75z"/>
</svg>
